X:7265
T:the Recovery
O:england
R:Polka
N:16.10.96
M:4/4
Q:1/8=420
C:Andy Hornby
A:Lancaster
K:G
Bc|\
d2de c2cd|B2G2 GABG|c2cA B2BG|A2D2 D2Bc|\
d2de c2cd|B6 AB|cBAG FGAF|G6 ::
BG|\
A2DE FGAc|B2G2 G2AB|c2A2 ABcA|d6 ed|\
c2AB cAdc|B2G2 G2AB|cBAG FGAF|G6 :|
W:Copyright (C) Andy Hornby


